src/assets/images/discord.svg

<svg width="56" height="65" viewBox="0 0 56 65" fill="none" xmlns="http://www.w3.org/2000/svg">
<path d="M49.44 0.00488281H6.56032C2.94416 0.00488281 0 2.94882 0 6.59692V49.8609C0 53.509 2.94394 56.453 6.5601 56.453H42.8482L41.152 50.5329L45.2481 54.3409L49.1199 57.9249L56.0001 64.0049V6.59692C56.0001 2.94882 53.0561 0.00488281 49.44 0.00488281ZM37.088 41.7971C37.088 41.7971 35.9361 40.421 34.976 39.2049C39.1681 38.0208 40.7681 35.3969 40.7681 35.3969C39.456 36.261 38.208 36.8691 37.088 37.2847C35.4881 37.957 33.952 38.4048 32.4481 38.6609C29.376 39.2369 26.56 39.077 24.1601 38.629C22.3359 38.2768 20.7679 37.7649 19.4561 37.253C18.72 36.9649 17.92 36.613 17.1198 36.165C17.024 36.1009 16.928 36.0689 16.832 36.0048C16.7681 35.9729 16.7359 35.941 16.704 35.909C16.128 35.589 15.808 35.365 15.808 35.365C15.808 35.365 17.3441 37.925 21.408 39.1408C20.4481 40.3571 19.264 41.7969 19.264 41.7969C12.1918 41.5729 9.50404 36.933 9.50404 36.933C9.50404 26.629 14.112 18.2769 14.112 18.2769C18.72 14.8208 23.104 14.9169 23.104 14.9169L23.424 15.301C17.6641 16.9646 15.008 19.4929 15.008 19.4929C15.008 19.4929 15.712 19.109 16.8958 18.565C20.3199 17.0608 23.0401 16.645 24.1601 16.549C24.3519 16.5168 24.5121 16.4849 24.7041 16.4849C26.8485 16.2055 29.0187 16.1841 31.1682 16.421C34.208 16.773 37.4721 17.669 40.8 19.4929C40.8 19.4929 38.2721 17.093 32.832 15.429L33.28 14.9171C33.28 14.9171 37.664 14.8208 42.272 18.2771C42.272 18.2771 46.8802 26.629 46.8802 36.933C46.8802 36.933 44.16 41.5729 37.088 41.7969V41.7971ZM22.208 26.853C20.384 26.853 18.9442 28.4529 18.9442 30.4048C18.9442 32.357 20.416 33.9569 22.208 33.9569C24.0321 33.9569 25.4719 32.357 25.4719 30.4048C25.5041 28.4529 24.0321 26.853 22.2082 26.853H22.208ZM33.8881 26.853C32.064 26.853 30.6239 28.4529 30.6239 30.4048C30.6239 32.357 32.0961 33.9569 33.8881 33.9569C35.7121 33.9569 37.1519 32.357 37.1519 30.4048C37.1519 28.4529 35.7121 26.853 33.8881 26.853Z" fill="#854BFF"/>
</svg>

<?xml version="1.0" encoding="utf-8"?>
<!-- Generator: Adobe Illustrator 27.6.1, SVG Export Plug-In . SVG Version: 6.00 Build 0)  -->
<svg version="1.1" id="Layer_1" xmlns="http://www.w3.org/2000/svg" xmlns:xlink="http://www.w3.org/1999/xlink" x="0px" y="0px"
	 viewBox="0 0 56 65" style="enable-background:new 0 0 56 65;" xml:space="preserve">
<style type="text/css">
	.st0{fill:#9D75F6;}
</style>
<path class="st0" d="M49.4,0H6.6C2.9,0,0,2.9,0,6.6v43.3c0,3.6,2.9,6.6,6.6,6.6h36.3l-1.7-5.9l4.1,3.8l3.9,3.6L56,64V6.6
	C56,2.9,53.1,0,49.4,0z M37.1,41.8c0,0-1.2-1.4-2.1-2.6c4.2-1.2,5.8-3.8,5.8-3.8c-1.3,0.9-2.6,1.5-3.7,1.9c-1.6,0.7-3.1,1.1-4.6,1.4
	c-3.1,0.6-5.9,0.4-8.3,0c-1.8-0.4-3.4-0.9-4.7-1.4c-0.7-0.3-1.5-0.6-2.3-1.1c-0.1-0.1-0.2-0.1-0.3-0.2c-0.1,0-0.1-0.1-0.1-0.1
	c-0.6-0.3-0.9-0.5-0.9-0.5s1.5,2.6,5.6,3.8c-1,1.2-2.1,2.7-2.1,2.7c-7.1-0.2-9.8-4.9-9.8-4.9c0-10.3,4.6-18.7,4.6-18.7
	c4.6-3.5,9-3.4,9-3.4l0.3,0.4C17.7,17,15,19.5,15,19.5s0.7-0.4,1.9-0.9c3.4-1.5,6.1-1.9,7.3-2c0.2,0,0.4-0.1,0.5-0.1
	c2.1-0.3,4.3-0.3,6.5-0.1c3,0.4,6.3,1.2,9.6,3.1c0,0-2.5-2.4-8-4.1l0.4-0.5c0,0,4.4-0.1,9,3.4c0,0,4.6,8.4,4.6,18.7
	C46.9,36.9,44.2,41.6,37.1,41.8L37.1,41.8z M22.2,26.9c-1.8,0-3.3,1.6-3.3,3.6c0,2,1.5,3.6,3.3,3.6c1.8,0,3.3-1.6,3.3-3.6
	C25.5,28.5,24,26.9,22.2,26.9L22.2,26.9z M33.9,26.9c-1.8,0-3.3,1.6-3.3,3.6c0,2,1.5,3.6,3.3,3.6c1.8,0,3.3-1.6,3.3-3.6
	C37.2,28.5,35.7,26.9,33.9,26.9z"/>
</svg>
